!!!!SEGMENT: Snf0236-Pange_lingua_gloriosi_I--Regensburg_C120.krn
!!!id: Snf0236
!!!AGN: Motet
!!!SCT: Edwards, Gasch, Tröster (2022)
!!!voices: 4
!!!COM: Ludwig Senfl
!!!OTL: Pange, lingua, gloriosi I (Regensburg C120)
**kern	**text	**kern	**text	**kern	**text	**kern	**text
*part4	*part4	*part3	*part3	*part2	*part2	*part1	*part1
*staff4	*staff4	*staff3	*staff3	*staff2	*staff2	*staff1	*staff1
*I"Bassus	*	*I"Tenor	*	*I"Altus	*	*I"Superius	*
*I'B	*	*I'T	*	*I'A	*	*I'S	*
*clefF4	*	*clefGv2	*	*clefGv2	*	*clefG2	*
*	*	*	*	*	*	*	*
*k[]	*	*k[]	*	*k[]	*	*k[]	*
*	*	*	*	*	*	*	*
*M3/1	*	*M3/1	*	*M3/1	*	*M3/1	*
*met(O)	*	*met(O)	*	*met(O)	*	*met(O)	*
!!section: Prima pars: Pange, lingua, gloriosi
!!!OMD: Prima pars: Pange, lingua, gloriosi
=1	=1	=1	=1	=1	=1	=1	=1
1%3r	.	0.E	Pan-	1B	Pan-	1.e	Pan-
.	.	.	.	1c	.	.	.
.	.	.	.	.	.	1.g	-ge,
.	.	.	.	1B	-ge,	.	.
=2	=2	=2	=2	=2	=2	=2	=2
1%3r	.	0.F	-ge,	2.A	lin-	1.a	lin-
.	.	.	.	4D	.	.	.
.	.	.	.	1D	-gua,	.	.
.	.	.	.	.	.	2d	.
.	.	.	.	[1A	pan-	1d	-gua,
=3	=3	=3	=3	=3	=3	=3	=3
1.AA	Pan-	0.E	lin-	2A]	.	2r	.
.	.	.	.	1.c	.	2a	lin-
.	.	.	.	.	.	1.cc	.
1.C	-ge,	.	.	.	.	.	.
.	.	.	.	1e	-ge,	.	.
.	.	.	.	.	.	2a	.
=4	=4	=4	=4	=4	=4	=4	=4
1.D	lin-	0.D	-gua,	1.f	lin-	1a	-gua,
.	.	.	.	.	.	2r	.
2GG	.	.	.	2d	.	2.b	glo-
1GG	-gua,	.	.	1d	-gua,	.	.
.	.	.	.	.	.	4a	.
.	.	.	.	.	.	4g	.
.	.	.	.	.	.	4f	.
=5	=5	=5	=5	=5	=5	=5	=5
1%3r	.	0.G	glo-	2e	glo-	2g	.
.	.	.	.	1d	.	4f	.
.	.	.	.	.	.	4e	.
.	.	.	.	.	.	2d	.
.	.	.	.	2.g	.	2.b	.
.	.	.	.	4f	.	4a	.
.	.	.	.	4e	.	4g	.
.	.	.	.	4d	.	4f	.
=6	=6	=6	=6	=6	=6	=6	=6
1%3r	.	0.G	-ri-	2e	.	2g	.
.	.	.	.	4d	.	4f	.
.	.	.	.	4c	.	4e	.
.	.	.	.	2B	.	4d	.
.	.	.	.	.	.	4c	.
.	.	.	.	1c	.	2e	.
.	.	.	.	.	.	1d	-ri-
.	.	.	.	2B	-ri-	.	.
=7	=7	=7	=7	=7	=7	=7	=7
1%3r	.	2.A	-o-	2c	-o-	1c	-o-
.	.	.	.	1F	.	.	.
.	.	4G	.	.	.	.	.
.	.	4A	.	.	.	2d	.
.	.	4B	.	.	.	.	.
.	.	1c	.	2E	.	2e	.
.	.	.	.	1D	-si,	1f	.
.	.	2B	.	.	.	.	.
=8	=8	=8	=8	=8	=8	=8	=8
1.AA	pan-	0.c	-si	2r	.	1e	-si,
.	.	.	.	1A	pan-	.	.
.	.	.	.	.	.	1r	.
1.C	-ge,	.	.	4G	.	.	.
.	.	.	.	4F	.	.	.
.	.	.	.	1G	-ge,	1e	pan-
=9	=9	=9	=9	=9	=9	=9	=9
1.D	lin-	1%3r	.	1F	lin-	1.f	.
.	.	.	.	1.B-X	.	.	.
2GG	.	.	.	.	.	2d	.
1GG	-gua,	.	.	.	.	2d	-ge,
.	.	.	.	2G	.	[2g	lin-
=10	=10	=10	=10	=10	=10	=10	=10
0.C	.	0.c	cor-	1G	-gua,	2g]	.
.	.	.	.	.	.	2e	.
.	.	.	.	2r	.	2.e	-gua,
.	.	.	.	1g	lin-	.	.
.	.	.	.	.	.	4f	.
.	.	.	.	.	.	2g	.
.	.	.	.	2e	.	2a	.
=11	=11	=11	=11	=11	=11	=11	=11
0.BB-X	.	0.d	.	0f	-gua,	1.b-X	glo-
.	.	.	.	.	.	4a	-ri-
.	.	.	.	.	.	4g	.
.	.	.	.	1r	.	2f	-o-
.	.	.	.	.	.	2g	.
=12	=12	=12	=12	=12	=12	=12	=12
[0.F	.	0.c	-po-	[0.f	glo-	0a	-si,
.	.	.	.	.	.	1r	.
=13	=13	=13	=13	=13	=13	=13	=13
0F]	.	0.c	-ris	1f]	.	1.a	glo-
.	.	.	.	1F	-ri-	.	.
.	.	.	.	.	.	4g	-ri-
.	.	.	.	.	.	4f	.
1r	.	.	.	1A	.	2e	-o-
.	.	.	.	.	.	2f	.
=14	=14	=14	=14	=14	=14	=14	=14
0C	glo-	0.c	my-	1G	-o-	0g	-si
.	.	.	.	1E	.	.	.
1AA	-ri-	.	.	[1e	.	1r	.
=15	=15	=15	=15	=15	=15	=15	=15
2.E	-o-	0.B	.	1e]	.	1.g	cor-
4F	.	.	.	.	.	.	.
2G	.	.	.	1.d	.	.	.
2E	.	.	.	.	.	4f	.
.	.	.	.	.	.	4e	.
1G	-si	.	.	.	.	2d	-po-
.	.	.	.	2G	.	2e	.
=16	=16	=16	=16	=16	=16	=16	=16
2.D	cor-	0.A	-ste-	1d	-si	1.f	-ris
4E	.	.	.	.	.	.	.
2F	.	.	.	1r	.	.	.
2D	.	.	.	.	.	4e	.
.	.	.	.	.	.	4d	.
1F	-po-	.	.	2r	.	2c	.
.	.	.	.	2D	cor-	2d	.
=17	=17	=17	=17	=17	=17	=17	=17
0.E	-ris	0.B	-ri-	1.G	.	[0.e	.
.	.	.	.	4.E	.	.	.
.	.	.	.	8F	.	.	.
.	.	.	.	4G	.	.	.
.	.	.	.	2A	.	.	.
.	.	.	.	4G	.	.	.
=18	=18	=18	=18	=18	=18	=18	=18
0.AA	.	0.c	-um,	1.A	-po-	0e]	.
.	.	.	.	4G	.	.	.
.	.	.	.	4F	.	.	.
.	.	.	.	2E	.	2r	.
.	.	.	.	2F	.	2a	my-
=19	=19	=19	=19	=19	=19	=19	=19
2r	.	0.B	.	0G	-ris	2d	.
1E	my-	.	.	.	.	1g	.
4D	.	.	.	.	.	4f	.
4C	.	.	.	.	.	4e	.
2.BB	-ste-	.	.	1r	.	2.d	.
4C	-ri-	.	.	.	.	4e	.
=20	=20	=20	=20	=20	=20	=20	=20
1D	-um,	2.A	.	2.F	my-	1f	.
.	.	4B	.	4G	.	.	.
1r	.	2c	.	2A	.	2e	.
.	.	1d	.	2.D	.	2d	.
1r	.	.	.	.	.	1f	.
.	.	.	.	4E	.	.	.
.	.	4c	.	4F	.	.	.
.	.	4B	.	4G	.	.	.
=21	=21	=21	=21	=21	=21	=21	=21
1%3r	.	2c	.	2A	-ste-	2e	-ste-
.	.	2d	.	2F	.	2f	.
.	.	1G	.	2G	.	2d	.
.	.	.	.	2E	.	1g	.
.	.	1A	.	2F	.	.	.
.	.	.	.	2c	-ri-	2f#i	-ri-
=22	=22	=22	=22	=22	=22	=22	=22
0.GG	san-	0.G	.	2d	-um,	2.g	-um,
.	.	.	.	1e	.	.	.
.	.	.	.	.	.	4a	.
.	.	.	.	.	.	2b	.
.	.	.	.	4d	.	2.cc	.
.	.	.	.	4c	.	.	.
.	.	.	.	1d	.	.	.
.	.	.	.	.	.	4a	.
.	.	.	.	.	.	2b	.
=23	=23	=23	=23	=23	=23	=23	=23
0.AA	-gui-	1%3r	.	2r	.	[0.e	.
.	.	.	.	2.c	san-	.	.
.	.	.	.	4B	.	.	.
.	.	.	.	4A	.	.	.
.	.	.	.	4G	.	.	.
.	.	.	.	1A	.	.	.
=24	=24	=24	=24	=24	=24	=24	=24
0C	-nis-	0.G	san-	2E	-gui-	1e]	.
.	.	.	.	2.G	.	.	.
.	.	.	.	.	.	1c	.
.	.	.	.	4F	.	.	.
.	.	.	.	1E	.	.	.
1BB	-que	.	.	.	.	1d	.
.	.	.	.	2D	-nis-	.	.
=25	=25	=25	=25	=25	=25	=25	=25
1.AA	pre-	0.A	-gui-	1E	-que	1c	.
.	.	.	.	1.F	pre-	1r	.
1.FF	.	.	.	.	.	.	.
.	.	.	.	.	.	1r	.
.	.	.	.	[2A	.	.	.
=26	=26	=26	=26	=26	=26	=26	=26
1.AA	.	0.c	-nis-	1A]	.	1.c	san-
.	.	.	.	1.c	.	.	.
1.C	.	.	.	.	.	1.e	.
.	.	.	.	[2e	.	.	.
=27	=27	=27	=27	=27	=27	=27	=27
1.E	-ti-	0.B	-que	1e]	.	1.g	-gui-
.	.	.	.	1.g	-ti-	.	.
1.G	.	.	.	.	.	1.b	.
.	.	.	.	[2d	.	.	.
=28	=28	=28	=28	=28	=28	=28	=28
1.D	.	[0.A	pre-	1d]	.	1.dd	-nis-
.	.	.	.	1.f	-o-	.	.
1.F	.	.	.	.	.	1.a	.
.	.	.	.	[2F	.	.	.
=29	=29	=29	=29	=29	=29	=29	=29
1.FF	-o-	0.A]	.	1F]	.	1.cc	-que
.	.	.	.	1.A	.	.	.
1.AA	.	.	.	.	.	1.c	.
.	.	.	.	[2c	.	.	.
=30	=30	=30	=30	=30	=30	=30	=30
1.C	.	[0.G	-ti-	1c]	.	1.e	pre-
.	.	.	.	1G	-si,	.	.
1.GG	.	.	.	.	.	1g	.
.	.	.	.	2r	.	.	.
.	.	.	.	2B	pre-	2d	-ti-
=31	=31	=31	=31	=31	=31	=31	=31
1.C	-si,	0.G]	.	1.c	.	1.e	-o-
1.E	.	.	.	4B	.	1.g	.
.	.	.	.	4A	.	.	.
.	.	.	.	2B	.	.	.
.	.	.	.	2c	.	.	.
=32	=32	=32	=32	=32	=32	=32	=32
1.D	.	0.A	-o-	1d	-ti-	2f	.
.	.	.	.	.	.	1.a	.
.	.	.	.	1.f	.	.	.
1.F	.	.	.	.	.	.	.
.	.	.	.	.	.	[1cc	.
.	.	.	.	[2c	-o-	.	.
=33	=33	=33	=33	=33	=33	=33	=33
1.C	.	0.A	-si,	4c]	.	2cc]	.
.	.	.	.	4B	.	.	.
.	.	.	.	4c	.	2.cc	-si,
.	.	.	.	4d	.	.	.
.	.	.	.	2e	.	.	.
.	.	.	.	.	.	4b	.
1.D	.	.	.	2.f	.	4a	.
.	.	.	.	.	.	4g	.
.	.	.	.	.	.	1f	.
.	.	.	.	4e	.	.	.
.	.	.	.	4d	.	.	.
.	.	.	.	4c	.	.	.
=34	=34	=34	=34	=34	=34	=34	=34
2.E	pre-	1%3r	.	2B	.	2.g	pre-
.	.	.	.	2.c	.	.	.
4D	.	.	.	.	.	4f	.
2C	-ti-	.	.	.	.	2e	-ti-
.	.	.	.	4B	.	.	.
2D	.	.	.	1A	.	2f	.
1BB	-o-	.	.	.	.	1d	-o-
.	.	.	.	2G	.	.	.
=35	=35	=35	=35	=35	=35	=35	=35
0.AA	-si,	1.A	quem	4A	-si,	0c	-si,
.	.	.	.	4B	.	.	.
.	.	.	.	4c	.	.	.
.	.	.	.	4d	.	.	.
.	.	.	.	4e	.	.	.
.	.	.	.	4f	.	.	.
.	.	1.c	in	1e	.	.	.
.	.	.	.	.	.	1r	.
.	.	.	.	4d	.	.	.
.	.	.	.	4c	.	.	.
=36	=36	=36	=36	=36	=36	=36	=36
1%3r	.	1.G	mun-	4B	.	1%3r	.
.	.	.	.	4A	.	.	.
.	.	.	.	4B	.	.	.
.	.	.	.	4c	.	.	.
.	.	.	.	2d	.	.	.
.	.	1.F	-di	4D	.	.	.
.	.	.	.	4E	.	.	.
.	.	.	.	4F	.	.	.
.	.	.	.	4G	.	.	.
.	.	.	.	4A	.	.	.
.	.	.	.	4B	.	.	.
=37	=37	=37	=37	=37	=37	=37	=37
1%3r	.	2.A	pre-	4c	.	1r	.
.	.	.	.	4d	.	.	.
.	.	.	.	2e	.	.	.
.	.	4G	.	.	.	.	.
.	.	2F	.	2A	.	1r	.
.	.	2G	.	1d	.	.	.
.	.	1E	-ti-	.	.	2r	.
.	.	.	.	2c#i	.	2e	quem
=38	=38	=38	=38	=38	=38	=38	=38
2r	.	1D	-um	1.d	.	2f	.
2GG	fru-	.	.	.	.	2b-i	in
2FF	-ctus	1r	.	.	.	2a	mun-
2GG	ven-	.	.	2B	.	1g	.
1D	-tris,	1r	.	2A	.	.	.
.	.	.	.	4r	quem	2f#i	.
.	.	.	.	4A	.	.	.
=39	=39	=39	=39	=39	=39	=39	=39
2r	.	0.G	fru-	2B	.	1.g	-di
2C	fru-	.	.	2e	in	.	.
2BB	-ctus	.	.	2d	mun-	.	.
2C	ven-	.	.	1c	.	2e	.
1G	-tris	.	.	.	.	2d	.
.	.	.	.	2B	.	4r	.
.	.	.	.	.	.	4d	pre-
=40	=40	=40	=40	=40	=40	=40	=40
0.C	ge-	0.G	-ctus	2c	-di	2e	.
.	.	.	.	2.e	pre-	2.g	.
.	.	.	.	4d	.	4f	.
.	.	.	.	4c	.	4e	.
.	.	.	.	4B	.	4d	.
.	.	.	.	1c	-ti-	1e	-ti-
=41	=41	=41	=41	=41	=41	=41	=41
0.GG	.	0.G	ven-	4B	-um	2d	-um
.	.	.	.	4c	.	.	.
.	.	.	.	4d	.	1g	fru-
.	.	.	.	4e	.	.	.
.	.	.	.	4d	.	.	.
.	.	.	.	4G	.	.	.
.	.	.	.	1c	fru-	4f	.
.	.	.	.	.	.	4e	.
.	.	.	.	.	.	1d	.
.	.	.	.	2B	.	.	.
=42	=42	=42	=42	=42	=42	=42	=42
2AA	-ne-	0E	-tris	2A	.	1c	-ctus
2.C	-ro-	.	.	1G	-ctus	.	.
.	.	.	.	.	.	2r	.
4BB	.	.	.	.	.	.	.
2AA	.	.	.	2A	.	2c	ven-
1GG	.	1G	ge-	1B	.	2d	.
.	.	.	.	.	.	2e	.
=43	=43	=43	=43	=43	=43	=43	=43
1FF	-si	2A	-ne-	2c	ven-	1f	.
.	.	2.c	-ro-	2A	.	.	.
2r	.	.	.	2.A	-tris	1e	-tris
.	.	4B	.	.	.	.	.
2.AA	Rex,	4A	.	.	.	.	.
.	.	4G	.	4B	.	.	.
.	.	1A	.	4c	.	2r	.
4BB	.	.	.	4d	.	.	.
4C	.	.	.	4e	.	2cc	ge-
4D	.	.	.	4f	.	.	.
=44	=44	=44	=44	=44	=44	=44	=44
4E	.	0G	-si	2g	.	4b	.
4F	.	.	.	.	.	4a	.
2.G	.	.	.	2d	ge-	4g	.
.	.	.	.	.	.	4f	.
.	.	.	.	2e	-ne-	2g	.
4C	.	.	.	.	.	.	.
2E	.	.	.	1c	-ro-	2e	.
1D	.	1r	.	.	.	2f	.
.	.	.	.	2B	.	2d	-ne-
=45	=45	=45	=45	=45	=45	=45	=45
1%3r	.	[0.A	Rex	1c	-si	1e	-ro-
.	.	.	.	2r	.	1.f	.
.	.	.	.	2.F	Rex,	.	.
.	.	.	.	4G	.	.	.
.	.	.	.	4A	.	2e	.
.	.	.	.	4B	.	.	.
=46	=46	=46	=46	=46	=46	=46	=46
1r	.	1A]	.	1c	.	0e	-si
2r	.	0c	ef-	2.A	Rex	.	.
2.AA	Rex,	.	.	.	.	.	.
.	.	.	.	4B	.	.	.
.	.	.	.	4c	.	1r	.
4BB	.	.	.	4d	.	.	.
4C	.	.	.	[2e	.	.	.
4D	.	.	.	.	.	.	.
=47	=47	=47	=47	=47	=47	=47	=47
4E	.	0G	-fu-	2e]	.	1r	.
4F	.	.	.	.	.	.	.
2.G	.	.	.	4d	.	.	.
.	.	.	.	4c	.	.	.
.	.	.	.	4B	.	1r	.
4C	.	.	.	4G	.	.	.
2E	.	.	.	2c	.	.	.
2D	.	[1A	-dit	2d	.	2r	.
[2AA	Rex	.	.	2e	.	[2c	Rex
=48	=48	=48	=48	=48	=48	=48	=48
4AA]	.	1A]	.	1c	.	4c]	.
4BB	.	.	.	.	.	4d	.
4C	.	.	.	.	.	4e	.
4D	.	.	.	.	.	4f	.
4E	.	0G	.	2.B	.	2g	.
4F	.	.	.	.	.	.	.
2.G	.	.	.	.	.	2d	.
.	.	.	.	4A	.	.	.
.	.	.	.	4B	.	1e	.
4C	.	.	.	4G	.	.	.
2E	.	.	.	[2c	.	.	.
=49	=49	=49	=49	=49	=49	=49	=49
1D	.	0F	gen-	2c]	.	0f	.
.	.	.	.	2B	ef-	.	.
1r	.	.	.	2c	-fu-	.	.
.	.	.	.	2d	.	.	.
1r	.	[1E	.	2e	.	1g	.
.	.	.	.	4E	.	.	.
.	.	.	.	4F	.	.	.
=50	=50	=50	=50	=50	=50	=50	=50
2r	.	1E]	.	4G	.	1r	.
.	.	.	.	4A	.	.	.
2GG	ef-	.	.	4B	.	.	.
.	.	.	.	4c	.	.	.
2.BB	-fu-	0D	-ti-	4d	.	2r	.
.	.	.	.	4e	.	.	.
.	.	.	.	2B	.	1g	ef-
4C	.	.	.	.	.	.	.
1D	-dit,	.	.	1A	.	.	.
.	.	.	.	.	.	2f	.
=51	=51	=51	=51	=51	=51	=51	=51
1r	.	2.E	-um.	2.G	.	2g	-fu-
.	.	.	.	.	.	2.e	.
.	.	4F	.	4A	.	.	.
2r	.	2G	.	2B	.	.	.
.	.	.	.	.	.	4f	.
2C	ef-	2E	.	1G	.	2g	.
2.E	-fu-	2.G	.	.	.	2e	.
.	.	.	.	[2B	.	[2g	.
4F	.	4A	.	.	.	.	.
=52	=52	=52	=52	=52	=52	=52	=52
1G	-dit	2B	.	4B]	.	4g]	.
.	.	.	.	4c	.	4a	.
.	.	2G	.	2d	.	2b	.
1E	.	2.B	.	1e	.	2g	.
.	.	.	.	.	.	2.b	.
.	.	4c	.	.	.	.	.
1D	.	2d	.	2f	.	.	.
.	.	.	.	.	.	4cc	.
.	.	2B	.	2d	.	2dd	.
=53	=53	=53	=53	=53	=53	=53	=53
1C	.	2.c	.	1e	.	2g	-dit
.	.	.	.	.	.	2.cc	gen-
.	.	4B	.	.	.	.	.
1FF	.	4A	.	1f	.	.	.
.	.	4G	.	.	.	4b	.
.	.	1A	.	.	.	4a	.
.	.	.	.	.	.	4g	.
2r	.	.	.	1e	-dit	1a	.
[2C	gen-	4G	.	.	.	.	.
.	.	4F	.	.	.	.	.
=54	=54	=54	=54	=54	=54	=54	=54
2C]	.	2E	.	1r	.	2g	.
2D	.	2D	.	.	.	2.f	.
2E	.	2G	.	2r	.	.	.
.	.	.	.	.	.	4e	.
2C	.	2A	.	2c	gen-	1e	.
2D	.	1F	.	2A	.	.	.
2BB	-ti-	.	.	2B	-ti-	2d	-ti-
=55	=55	=55	=55	=55	=55	=55	=55
2.C	-um.	[0.El	.	2G	-um.	[0.el	-um.
.	.	.	.	4A	.	.	.
4BB	.	.	.	4B	.	.	.
4AA	.	.	.	4c	.	.	.
4GG	.	.	.	4A	.	.	.
1AA	.	.	.	1c	.	.	.
4GG	.	.	.	4B	.	.	.
4FF	.	.	.	4A	.	.	.
=56	=56	=56	=56	=56	=56	=56	=56
1EE	.	0.E_	.	2c	.	0.e_	.
.	.	.	.	1B	.	.	.
1GG	.	.	.	.	.	.	.
.	.	.	.	4A	.	.	.
.	.	.	.	4G	.	.	.
1AA	.	.	.	1c	.	.	.
=57	=57	=57	=57	=57	=57	=57	=57
00EEl	.	00E]	.	00Bl	.	00e]	.
==	==	==	==	==	==	==	==
*-	*-	*-	*-	*-	*-	*-	*-
!!!system-decoration: [*]
!!!RDF**kern: i = editorial accidental
!!!RDF**kern: l = terminal long
!!!!PTL: <i> New Senfl Edition: Motets for Four Voices (N-V) </i>
!!!PPR: Hollitzer Verlag
!!!PC#: Denkmäler der Tonkunst in Österreich 163.2
!!!PDT: 2022
!!!PED: Scott Lee Edwards, Stefan Gasch, and Sonja Tröster
!!!YEC: Copyright 2022 Denkmäler der Tonkunst in Österreich
!!!YEM: CC-BY-NC 4.0 (https://creativecommons.org/licenses/by-nc/4.0/legalcode)
!!!EED: Benjamin Ory
!!!EEV: 2024/2/14
!!!verovio: header true
!!!header-left: @{PTL}\n@{PED}, eds.\n@{PC#} (@{PDT})&nbsp;\n
!!!header-right:
!!!header-center:
